X:0
T:Melodic Minor Scales
M:4/4
L:1/8
K:FMin
"^F"       FGAB c=d=ef|fedc BAGF||\
K:CMin
"^C"       CDEF G=A=Bc|cBAG FEDC||
K:GMin
"^G"       GABc d=e^fg|gfed cBAG||\
K:DMin
"^D"       DEFG A=B^cd|dcBA GFED||
K:AMin
"^A"       ABcd e^f^ga|agfe dcBA||
K:EMin
"^E"       EFGA B^c^de|edcB AGFE||\
K:BMin
"^B"       Bcde f^g^ab|bagf edcB||
K:F#Min
"^F sharp" FGAB c^d^ef|fedc BAGF||\
K:C#Min
"^C sharp" CDEF G^A^Bc|cBAG FEDC|]

A reduced minor scale with a gap at the sixth, along with a sharpened
seventh, occurs in this Border ballad tune of about 1800:

